X:20
M:none
L:1/4
K:Bm
%%score (T) | (B)
V:T clef=treble
V:B clef=bass
[V:T] [F4D4]  d0 d0 c0 B0 [B4D4] | [F4D4] [E4B,4] | F0 [D4F4] [d0D4]c0d0c0B4 | [C4^A4] =G0 G0 [C4F4] ||
%[V:B] [B,,4F,4] 
[V:B] [B,,4F,4] [B,,4F,4] | [B,,4F,4] [G,,4E,4] | [B,,4F,4] [G,,4G,4] | [F,,4F,4] [F,,4^A,4] ||

